unionpay.svg

<svg viewBox="0 0 24 24" xmlns="http://www.w3.org/2000/svg"><path d="M4.70006 4.49369L10.6904 4.49369C11.5265 4.49369 12.0466 5.17526 11.8516 6.01423L9.06265 17.9881C8.86583 18.8242 8.02862 19.5063 7.19184 19.5063L1.20213 19.5063C0.367103 19.5063-0.154148 18.8242 0.0409199 17.9881L2.831 6.01423C3.02607 5.17526 3.86284 4.49369 4.70006 4.49369" fill="#e21836"/><path d="M10.1919 4.49369L17.0806 4.49369C17.9166 4.49369 17.5397 5.17526 17.343 6.01423L14.5545 17.9881C14.3589 18.8242 14.4199 19.5063 13.5821 19.5063L6.6934 19.5063C5.8556 19.5063 5.33712 18.8242 5.53394 17.9881L8.32227 6.01423C8.52026 5.17526 9.35528 4.49369 10.1919 4.49369" fill="#00447c"/><path d="M16.8074 4.49369L22.7977 4.49369C23.635 4.49369 24.1551 5.17526 23.9584 6.01423L21.17 17.9881C20.9731 18.8242 20.1353 19.5063 19.2981 19.5063L13.3106 19.5063C12.4728 19.5063 11.9532 18.8242 12.1494 17.9881L14.9383 6.01423C15.1334 5.17526 15.9696 4.49369 16.8074 4.49369" fill="#007b84"/><path d="M6.26451 8.33098C5.6485 8.33725 5.46657 8.33098 5.40846 8.31725C5.38612 8.4234 4.97044 10.3409 4.96927 10.3425C4.87976 10.7305 4.81465 11.007 4.59344 11.1856C4.46787 11.2894 4.32128 11.3395 4.15133 11.3395C3.87815 11.3395 3.719 11.2038 3.69228 10.9466L3.68717 10.8582C3.68717 10.8582 3.77039 10.3386 3.77039 10.3357C3.77039 10.3357 4.20666 8.58824 4.28478 8.35726C4.28887 8.34412 4.29004 8.33725 4.29106 8.33098C3.44187 8.33842 3.29134 8.33098 3.28097 8.31725C3.27528 8.33609 3.25425 8.44443 3.25425 8.44443L2.80878 10.4139L2.77052 10.581L2.6965 11.1273C2.6965 11.2894 2.72833 11.4217 2.79169 11.5335C2.99465 11.8882 3.57357 11.9413 3.90107 11.9413C4.32303 11.9413 4.71886 11.8517 4.98635 11.688C5.45066 11.4137 5.57214 10.9848 5.68048 10.6037L5.7307 10.4082C5.7307 10.4082 6.18012 8.59335 6.25648 8.35726C6.2594 8.34412 6.26057 8.33725 6.26451 8.33098ZM7.79362 9.79506C7.68528 9.79506 7.48729 9.82135 7.30945 9.90851C7.24492 9.94166 7.18388 9.97991 7.11949 10.018L7.17761 9.8082L7.14578 9.77287C6.76864 9.84923 6.68424 9.85945 6.33587 9.90851L6.30666 9.92793C6.26622 10.2633 6.2303 10.5155 6.08035 11.1747C6.02326 11.4177 5.96398 11.663 5.90456 11.9053L5.92062 11.9361C6.27761 11.9173 6.38595 11.9173 6.69622 11.9224L6.72133 11.8951C6.76075 11.6932 6.76586 11.6459 6.85317 11.2369C6.8942 11.043 6.97976 10.6169 7.02196 10.4652C7.09949 10.4293 7.176 10.394 7.249 10.394C7.4229 10.394 7.40173 10.5457 7.39501 10.6061C7.38757 10.7076 7.3242 11.0391 7.25923 11.3236L7.21586 11.5073C7.18564 11.6429 7.15249 11.7748 7.12227 11.9093L7.13541 11.9361C7.48729 11.9173 7.59461 11.9173 7.89509 11.9224L7.93043 11.8951C7.98474 11.5797 8.00066 11.4953 8.09702 11.0361L8.1455 10.8252C8.23967 10.4122 8.28698 10.2029 8.21573 10.0323C8.14039 9.8412 7.95963 9.79506 7.79362 9.79506ZM9.5018 10.2274C9.31476 10.2633 9.19548 10.2872 9.07692 10.3027C8.95938 10.3216 8.84476 10.3386 8.664 10.3638L8.64969 10.3767L8.63655 10.3871C8.61772 10.5217 8.60458 10.6381 8.57961 10.7749C8.55844 10.9164 8.52588 11.0772 8.47288 11.3081C8.43185 11.485 8.41068 11.5466 8.38732 11.6088C8.36454 11.671 8.33943 11.7314 8.29329 11.9053L8.30409 11.9214L8.31314 11.9361C8.48208 11.9281 8.59261 11.9224 8.7062 11.9214C8.81965 11.9173 8.93719 11.9214 9.11911 11.9224L9.13503 11.9094L9.15211 11.8951C9.17839 11.7383 9.18233 11.6961 9.1984 11.6196C9.21431 11.5375 9.24176 11.4239 9.30907 11.1205C9.3409 10.978 9.37638 10.8359 9.40938 10.6905C9.44369 10.5457 9.47961 10.403 9.51377 10.2605L9.50866 10.2433L9.5018 10.2274ZM9.50579 9.64449C9.33583 9.54418 9.03754 9.57601 8.83678 9.71457C8.6366 9.85036 8.61382 10.0431 8.78319 10.1447C8.95022 10.2422 9.24969 10.2132 9.4487 10.0735C9.64844 9.93475 9.67341 9.74377 9.50579 9.64449ZM10.5336 11.9676C10.8775 11.9676 11.2299 11.8728 11.4952 11.5916C11.6993 11.3635 11.7929 11.0242 11.8254 10.8845C11.9309 10.4213 11.8487 10.2051 11.7455 10.0734C11.5887 9.87262 11.3116 9.80823 11.0241 9.80823C10.8512 9.80823 10.4394 9.82532 10.1178 10.1219C9.8868 10.3358 9.78006 10.626 9.71568 10.9043C9.6507 11.1879 9.57594 11.6983 10.0454 11.8883C10.1902 11.9505 10.399 11.9676 10.5336 11.9676ZM10.5068 10.9255C10.586 10.5748 10.6796 10.2804 10.9185 10.2804C11.1057 10.2804 11.1193 10.4994 11.036 10.8513C11.0211 10.9294 10.9528 11.2198 10.8604 11.3435C10.7958 11.4348 10.7195 11.4901 10.6351 11.4901C10.61 11.4901 10.4606 11.4901 10.4583 11.2683C10.4571 11.1588 10.4794 11.047 10.5068 10.9255ZM12.6849 11.9225L12.7118 11.8952C12.7499 11.6932 12.7562 11.6458 12.8406 11.2369C12.8828 11.043 12.9701 10.617 13.0111 10.4653C13.0888 10.4292 13.164 10.3939 13.2393 10.3939C13.412 10.3939 13.391 10.5456 13.3841 10.606C13.3779 10.7077 13.3145 11.039 13.2484 11.3235L13.2073 11.5072C13.1759 11.643 13.1418 11.7747 13.1115 11.9093L13.1247 11.9362C13.4777 11.9173 13.581 11.9173 13.8832 11.9225L13.9197 11.8952C13.9727 11.5796 13.987 11.4952 14.0863 11.0362L14.1336 10.8251C14.2282 10.4121 14.2761 10.2029 14.206 10.0324C14.1285 9.84125 13.9466 9.79511 13.7829 9.79511C13.6744 9.79511 13.4754 9.82124 13.2986 9.90856C13.2354 9.9417 13.172 9.97981 13.1098 10.0181L13.164 9.80825L13.1349 9.77277C12.7579 9.84928 12.6718 9.8595 12.3238 9.90856L12.2971 9.92798C12.2549 10.2634 12.2206 10.5154 12.0706 11.1747C12.0136 11.4177 11.9543 11.663 11.895 11.9054L11.9109 11.9362C12.2685 11.9173 12.3752 11.9173 12.6849 11.9225ZM15.2788 11.9361C15.301 11.8278 15.4329 11.1856 15.434 11.1856C15.434 11.1856 15.5463 10.7145 15.5532 10.6974C15.5532 10.6974 15.5885 10.6483 15.6238 10.6289L15.6758 10.6289C16.1663 10.6289 16.7201 10.6289 17.1542 10.3096C17.4495 10.0906 17.6515 9.76715 17.7416 9.37409C17.7649 9.27773 17.7821 9.16311 17.7821 9.04849C17.7821 8.89796 17.7519 8.74903 17.6646 8.63266C17.4433 8.32298 17.0025 8.31728 16.4936 8.31494C16.492 8.31494 16.2428 8.31728 16.2428 8.31728C15.5914 8.32531 15.3302 8.32298 15.2229 8.30983C15.2139 8.35729 15.1968 8.44168 15.1968 8.44168C15.1968 8.44168 14.9634 9.52302 14.9634 9.52477C14.9634 9.52477 14.4051 11.8238 14.3788 11.9322C14.9475 11.9253 15.1807 11.9253 15.2788 11.9361ZM15.7112 10.0152C15.7112 10.0152 15.9592 8.93607 15.9581 8.94015L15.9661 8.88482L15.9696 8.84262L16.0687 8.85284C16.0687 8.85284 16.5803 8.89679 16.5923 8.89796C16.7942 8.97607 16.8775 9.17742 16.8194 9.44023C16.7664 9.68042 16.6106 9.88235 16.4104 9.97988C16.2455 10.0625 16.0436 10.0694 15.8356 10.0694L15.7009 10.0694L15.7112 10.0152ZM17.2557 10.9455C17.1901 11.2249 17.1148 11.7354 17.5819 11.9173C17.7308 11.9807 17.8643 11.9995 17.9999 11.9927C18.1431 11.9849 18.2759 11.9131 18.3988 11.8097C18.3877 11.8522 18.3766 11.8947 18.3655 11.9373L18.3867 11.9646C18.7226 11.9505 18.8269 11.9505 19.1909 11.9532L19.2239 11.9281C19.277 11.6157 19.3271 11.3123 19.4652 10.7145C19.5326 10.4282 19.5997 10.1446 19.6688 9.85947L19.658 9.82808C19.2822 9.89772 19.1817 9.91262 18.8202 9.96386L18.7927 9.9862C18.7891 10.0153 18.7853 10.0431 18.7818 10.071C18.7256 9.98022 18.6441 9.90269 18.5184 9.85436C18.3576 9.79114 17.98 9.87261 17.6555 10.1681C17.4274 10.3791 17.3179 10.6682 17.2557 10.9455ZM18.045 10.9626C18.1255 10.6181 18.2179 10.3267 18.4573 10.3267C18.6088 10.3267 18.6885 10.4664 18.6723 10.7047C18.6594 10.7641 18.6456 10.8268 18.6291 10.8976C18.6051 10.9999 18.5791 11.1014 18.5539 11.203C18.5282 11.2725 18.4982 11.3381 18.4654 11.3818C18.4038 11.4691 18.2572 11.5232 18.1728 11.5232C18.1488 11.5232 18.0011 11.5232 17.996 11.3054C17.9948 11.1969 18.0171 11.0852 18.045 10.9626ZM22.1669 9.82529L22.1379 9.79214C21.766 9.86748 21.6987 9.87946 21.357 9.9256L21.3319 9.95071C21.3307 9.9548 21.3297 9.96108 21.328 9.96677L21.3268 9.96108C21.0724 10.5479 21.0799 10.4213 20.8728 10.8833C20.8717 10.8622 20.8717 10.8491 20.8705 10.8268L20.8187 9.82529L20.7861 9.79214C20.3966 9.86748 20.3874 9.87946 20.0276 9.9256L19.9996 9.95071C19.9956 9.96268 19.9956 9.97582 19.9933 9.99013L19.9956 9.99524C20.0406 10.2251 20.0298 10.1738 20.0749 10.5365C20.0959 10.7145 20.124 10.8935 20.145 11.0693C20.1805 11.3635 20.2003 11.5083 20.2437 11.9573C20.0007 12.3582 19.9432 12.5099 19.7093 12.8618L19.7109 12.8653L19.5462 13.1258C19.5274 13.1533 19.5103 13.1721 19.4863 13.1801C19.4601 13.1931 19.4259 13.1955 19.3784 13.1955L19.2872 13.1955L19.1515 13.6466L19.6169 13.6547C19.8901 13.6535 20.0618 13.5257 20.1542 13.354L20.4468 12.8526L20.4421 12.8526L20.4729 12.8173C20.6697 12.3936 22.1669 9.82529 22.1669 9.82529ZM17.2557 15.7507L17.0583 15.7507L17.7889 13.3341L18.0313 13.3341L18.1082 13.0852L18.1157 13.362C18.1066 13.5331 18.2412 13.6848 18.5949 13.6597L19.0038 13.6597L19.1446 13.1944L18.9907 13.1944C18.9022 13.1944 18.8612 13.172 18.8663 13.1241L18.8589 12.8425L18.1015 12.8425L18.1015 12.8439C17.8567 12.8491 17.1254 12.8675 16.9774 12.9069C16.7982 12.953 16.6094 13.0888 16.6094 13.0888L16.6836 12.8396L15.9752 12.8396L15.8276 13.3341L15.0872 15.7876L14.9435 15.7876L14.8026 16.2496L16.2136 16.2496L16.1663 16.4036L16.8616 16.4036L16.9077 16.2496L17.1028 16.2496L17.2557 15.7507ZM16.6768 13.8251C16.5633 13.8565 16.3522 13.9517 16.3522 13.9517L16.5399 13.3341L17.1028 13.3341L16.967 13.7841C16.967 13.7841 16.7931 13.7943 16.6768 13.8251ZM16.6876 14.7075C16.6876 14.7075 16.5107 14.7296 16.3944 14.7559C16.2798 14.7907 16.0648 14.9002 16.0648 14.9002L16.2587 14.2575L16.8245 14.2575L16.6876 14.7075ZM16.3722 15.7564L15.8076 15.7564L15.9712 15.214L16.5341 15.214L16.3722 15.7564ZM17.7319 14.2575L18.5458 14.2575L18.4288 14.6362L17.6041 14.6362L17.4803 15.0503L18.2019 15.0503L17.6555 15.8196C17.6173 15.8761 17.583 15.8961 17.5449 15.912C17.5066 15.9314 17.4564 15.9542 17.3983 15.9542L17.1981 15.9542L17.0606 16.4077L17.5841 16.4077C17.8563 16.4077 18.0171 16.2839 18.1358 16.1214L18.5104 15.6086L18.5909 16.1293C18.608 16.2268 18.678 16.2839 18.7255 16.3061C18.7779 16.3324 18.8321 16.3775 18.9086 16.3842C18.9906 16.3877 19.0499 16.3905 19.0893 16.3905L19.3466 16.3905L19.5011 15.883L19.3996 15.883C19.3414 15.883 19.241 15.8732 19.224 15.8549C19.2069 15.8327 19.2069 15.7986 19.1977 15.7466L19.1161 15.2248L18.7819 15.2248L18.9284 15.0503L19.7515 15.0503L19.8781 14.6362L19.1161 14.6362L19.2348 14.2575L19.9945 14.2575L20.1354 13.7904L17.8705 13.7904L17.7319 14.2575ZM10.8581 15.8618L11.048 15.2299L11.8287 15.2299L11.9714 14.7599L11.19 14.7599L11.3092 14.3709L12.0729 14.3709L12.2144 13.9158L10.3037 13.9158L10.1651 14.3709L10.5992 14.3709L10.4834 14.7599L10.0482 14.7599L9.90391 15.2379L10.3378 15.2379L10.0847 16.074C10.0505 16.1847 10.1007 16.2269 10.1326 16.2783C10.1651 16.3283 10.1981 16.3615 10.2723 16.3803C10.3488 16.3974 10.4012 16.4076 10.4725 16.4076L11.3526 16.4076L11.5094 15.887L11.1193 15.9405C11.0439 15.9405 10.8353 15.9315 10.8581 15.8618ZM10.9476 12.8367L10.7498 13.1943C10.7074 13.2724 10.6693 13.3209 10.635 13.3432C10.6048 13.3621 10.5449 13.3699 10.4582 13.3699L10.355 13.3699L10.217 13.8274L10.5598 13.8274C10.7247 13.8274 10.8513 13.7669 10.9117 13.7367C10.9767 13.702 10.9938 13.7218 11.044 13.6733L11.1598 13.573L12.2303 13.573L12.3724 13.0968L11.5887 13.0968L11.7256 12.8367L10.9476 12.8367ZM12.5281 15.871C12.5098 15.8447 12.523 15.7985 12.5509 15.7021L12.8435 14.7336L13.8844 14.7336C14.0361 14.7314 14.1456 14.7297 14.2168 14.7246C14.2933 14.7165 14.3765 14.6892 14.4672 14.6402C14.5608 14.5888 14.6087 14.5346 14.6491 14.4724C14.6943 14.4104 14.7667 14.2746 14.8289 14.0652L15.1967 12.8396L14.1165 12.8459C14.1165 12.8459 13.7839 12.8949 13.6375 12.9491C13.4897 13.0095 13.2786 13.1783 13.2786 13.1783L13.3761 12.8424L12.7088 12.8424L11.7747 15.9405C11.7415 16.0608 11.7193 16.1482 11.7142 16.2006C11.7125 16.2571 11.7855 16.313 11.8328 16.3552C11.8887 16.3974 11.9713 16.3905 12.0506 16.3974C12.134 16.4037 12.2526 16.4076 12.4162 16.4076L12.929 16.4076L13.0864 15.8761L12.6274 15.9195C12.5783 15.9195 12.5428 15.8932 12.5281 15.871ZM13.0322 14.0795L14.1256 14.0795L14.0561 14.2973C14.0463 14.3025 14.0229 14.2865 13.9117 14.2997L12.9649 14.2997L13.0322 14.0795ZM13.2513 13.3489L14.3538 13.3489L14.2745 13.6112C14.2745 13.6112 13.7548 13.6061 13.6716 13.6215C13.3054 13.6848 13.0915 13.8805 13.0915 13.8805L13.2513 13.3489ZM14.0805 15.0268C14.0715 15.0594 14.0572 15.0793 14.0372 15.0942C14.015 15.1085 13.9791 15.1136 13.9255 15.1136L13.7697 15.1136L13.7789 14.8483L13.1309 14.8483L13.1046 16.1453C13.1036 16.2389 13.1126 16.293 13.1811 16.3364C13.2496 16.3906 13.4606 16.3974 13.7446 16.3974L14.1506 16.3974L14.2972 15.912L13.9437 15.9314L13.8262 15.9382C13.8101 15.9314 13.7948 15.9251 13.7777 15.908C13.7628 15.8933 13.7377 15.9023 13.7418 15.8087L13.7446 15.4763L14.1153 15.4609C14.3155 15.4609 14.401 15.3958 14.474 15.3338C14.5437 15.2743 14.5664 15.206 14.5927 15.1136L14.6549 14.8192L14.1455 14.8192L14.0805 15.0268Z" fill="#fefefe"/></svg>

<svg viewBox="0 0 24 24" xmlns="http://www.w3.org/2000/svg"><path d="M4.7 4.494h5.99c.837 0 1.357.681 1.162 1.52l-2.79 11.974c-.196.836-1.033 1.518-1.87 1.518h-5.99c-.835 0-1.356-.682-1.161-1.518L2.83 6.014c.195-.839 1.032-1.52 1.87-1.52" fill="#e21836"/><path d="M10.192 4.494h6.889c.836 0 .459.681.262 1.52l-2.788 11.974c-.196.836-.135 1.518-.973 1.518H6.693c-.837 0-1.356-.682-1.16-1.518l2.79-11.974c.197-.839 1.032-1.52 1.869-1.52" fill="#00447c"/><path d="M16.807 4.494h5.99c.838 0 1.358.681 1.161 1.52L21.17 17.988c-.197.836-1.035 1.518-1.872 1.518h-5.987c-.838 0-1.358-.682-1.162-1.518l2.79-11.974c.194-.839 1.03-1.52 1.868-1.52" fill="#007b84"/><path d="M6.265 8.331c-.616.006-.798 0-.857-.014l-.439 2.025c-.09.388-.154.665-.376.844a.67.67 0 0 1-.442.153c-.273 0-.432-.135-.459-.392l-.005-.089.083-.522s.437-1.748.515-1.979a.168.168 0 0 0 .006-.026c-.85.007-1 0-1.01-.014-.006.02-.027.127-.027.127l-.445 1.97-.038.167-.075.546c0 .162.032.295.096.406.203.355.782.408 1.11.408.421 0 .817-.09 1.084-.253.465-.274.586-.703.694-1.084l.05-.196s.45-1.815.526-2.05c.003-.014.005-.02.009-.027Zm1.529 1.464c-.109 0-.307.026-.485.114-.064.033-.125.07-.19.109l.059-.21-.032-.035c-.377.076-.462.086-.81.136l-.03.019c-.04.335-.076.587-.226 1.247-.057.243-.116.488-.175.73l.016.031a8.68 8.68 0 0 1 .775-.014l.025-.027c.04-.202.045-.25.132-.658.041-.194.127-.62.169-.772a.579.579 0 0 1 .227-.071c.174 0 .153.152.146.212-.007.102-.07.433-.136.718l-.043.183c-.03.136-.064.268-.094.402l.013.027a8.36 8.36 0 0 1 .76-.014l.035-.027c.055-.315.07-.4.167-.859l.049-.21c.094-.414.141-.623.07-.794-.076-.19-.256-.237-.422-.237Zm1.708.432c-.187.036-.307.06-.425.076a18.97 18.97 0 0 1-.413.06l-.014.014-.013.01c-.02.135-.032.251-.057.388a7.095 7.095 0 0 1-.107.533 2.094 2.094 0 0 1-.086.3c-.022.063-.048.123-.094.297l.011.016.01.015c.168-.008.279-.014.392-.015.114-.004.231 0 .413.001l.016-.013.017-.014c.026-.157.03-.199.046-.275.016-.082.044-.196.111-.5l.1-.43.105-.43-.005-.017-.007-.016Zm.004-.583c-.17-.1-.468-.068-.67.07-.2.136-.222.33-.053.43.167.098.467.07.666-.07.2-.14.224-.33.057-.43Zm1.028 2.324c.343 0 .696-.095.961-.376.204-.229.298-.568.33-.708.106-.463.024-.679-.08-.81-.156-.201-.433-.266-.72-.266-.174 0-.586.017-.907.314-.231.214-.338.504-.402.782-.065.284-.14.794.33.984.144.063.353.08.488.08Zm-.027-1.043c.079-.35.173-.645.412-.645.187 0 .2.22.117.571-.015.078-.083.369-.176.492-.064.092-.14.147-.225.147-.025 0-.174 0-.177-.222 0-.11.021-.221.049-.343Zm2.178.997.027-.027c.038-.202.044-.25.129-.658.042-.194.13-.62.17-.772.078-.036.153-.071.228-.071.173 0 .152.152.145.212-.006.102-.07.433-.136.717l-.04.184c-.032.136-.066.268-.097.402l.014.027a8.26 8.26 0 0 1 .758-.014l.037-.027c.053-.315.067-.4.166-.859l.048-.21c.094-.414.142-.623.072-.794-.077-.19-.26-.237-.423-.237a1.181 1.181 0 0 0-.673.223l.054-.21-.03-.035c-.376.076-.462.087-.81.136l-.027.019c-.042.335-.076.587-.226 1.247-.057.243-.117.488-.176.73l.016.031c.357-.019.464-.019.774-.014Zm2.594.014.155-.75s.112-.472.12-.489c0 0 .034-.049.07-.068h.052c.49 0 1.044 0 1.478-.32.296-.218.497-.542.588-.935.023-.096.04-.21.04-.326 0-.15-.03-.299-.117-.415-.222-.31-.662-.316-1.171-.318l-.251.002c-.652.008-.913.006-1.02-.007l-.026.132-.234 1.083-.584 2.407c.569-.007.802-.007.9.004Zm.432-1.92.247-1.076.008-.055.004-.042.099.01.523.045c.202.078.286.28.227.542a.789.789 0 0 1-.409.54c-.165.082-.366.09-.574.09H15.7l.01-.055Zm1.545.93c-.066.279-.141.79.326.971a.912.912 0 0 0 .418.076.69.69 0 0 0 .399-.183l-.034.127.022.028c.336-.014.44-.014.804-.012l.033-.025c.053-.312.103-.616.241-1.214l.204-.855-.011-.03c-.376.069-.476.084-.838.135l-.027.022-.011.085a.517.517 0 0 0-.264-.217c-.16-.063-.538.019-.863.314-.228.211-.337.5-.4.777Zm.789.017c.08-.345.173-.636.412-.636.152 0 .232.14.215.378-.013.06-.026.122-.043.193-.024.102-.05.203-.075.305a.744.744 0 0 1-.089.179c-.061.087-.208.141-.292.141-.024 0-.172 0-.177-.218-.001-.108.021-.22.049-.342Zm4.122-1.138-.03-.033c-.371.075-.438.087-.78.134l-.025.025-.004.016-.001-.006c-.255.587-.247.46-.454.922l-.003-.056-.051-1.002-.033-.033c-.39.075-.399.087-.758.134L20 9.95c-.004.012-.004.025-.007.04l.003.004c.045.23.034.179.079.542.02.177.049.356.07.532.035.294.055.44.099.888-.243.401-.3.553-.535.905l.002.003-.165.26c-.019.028-.036.047-.06.055a.248.248 0 0 1-.108.015h-.09l-.137.452.466.008c.273-.002.445-.13.537-.301l.293-.501h-.005l.03-.036c.198-.423 1.695-2.992 1.695-2.992Zm-4.911 5.926h-.198l.73-2.417h.243l.077-.249.008.277c-.01.171.125.323.479.298h.409l.14-.466h-.153c-.089 0-.13-.022-.125-.07l-.007-.282H18.1v.002c-.244.005-.976.024-1.124.063-.179.046-.368.182-.368.182l.075-.25h-.709l-.147.495-.74 2.454h-.144l-.141.462h1.41l-.047.154h.696l.046-.154h.195l.153-.5Zm-.58-1.926c-.113.032-.324.127-.324.127l.188-.618h.563l-.136.45s-.174.01-.29.041Zm.012.883s-.177.022-.294.048c-.114.035-.33.144-.33.144l.195-.643h.566l-.137.45Zm-.316 1.048h-.564l.163-.542h.563l-.162.542Zm1.36-1.498h.814l-.117.378h-.825l-.124.414h.722l-.547.77a.225.225 0 0 1-.11.092.325.325 0 0 1-.147.042h-.2l-.137.454h.523a.637.637 0 0 0 .552-.287l.374-.512.08.52a.245.245 0 0 0 .136.177c.052.026.106.072.183.078.082.004.14.006.18.006h.258l.154-.507H19.4c-.059 0-.159-.01-.176-.028-.017-.022-.017-.056-.026-.108l-.082-.522h-.334l.146-.175h.823l.127-.414h-.762l.119-.378h.76l.14-.468H17.87l-.138.468Zm-6.874 1.604.19-.632h.78l.143-.47h-.781l.12-.39h.763l.141-.454h-1.91l-.139.455h.434l-.116.389h-.435l-.144.478h.434l-.253.836c-.035.11.016.153.048.204.032.05.065.084.14.102a.84.84 0 0 0 .2.028h.88l.156-.521-.39.053c-.075 0-.284-.008-.26-.078Zm.09-3.025-.198.357a.415.415 0 0 1-.115.15c-.03.018-.09.026-.177.026h-.103l-.138.457h.343c.165 0 .291-.06.352-.09.065-.035.082-.015.132-.064l.116-.1h1.07l.142-.476h-.783l.137-.26h-.778Zm1.58 3.034c-.018-.026-.005-.072.023-.169l.293-.968h1.04a7.02 7.02 0 0 0 .333-.01.683.683 0 0 0 .25-.084.468.468 0 0 0 .182-.168c.045-.062.118-.197.18-.407l.368-1.225-1.08.006s-.333.049-.48.103c-.147.06-.358.23-.358.23l.097-.337h-.667l-.934 3.098c-.034.12-.056.208-.06.26-.002.057.07.113.118.155.056.042.138.035.218.042.083.007.202.01.365.01h.513l.157-.53-.459.042a.12.12 0 0 1-.099-.048Zm.504-1.792h1.094l-.07.218c-.01.005-.033-.01-.144.003h-.947l.067-.22Zm.22-.73h1.102l-.08.262s-.52-.005-.602.01c-.367.064-.58.26-.58.26l.16-.532Zm.829 1.678a.116.116 0 0 1-.044.067c-.022.014-.058.02-.112.02h-.155l.009-.266h-.648l-.026 1.297c-.001.094.008.148.076.191.069.055.28.061.564.061h.406l.146-.485-.353.02-.118.006c-.016-.007-.031-.013-.048-.03-.015-.015-.04-.006-.036-.1l.003-.332.37-.015a.48.48 0 0 0 .359-.127c.07-.06.092-.128.119-.22l.062-.295h-.51l-.064.208Z" fill="#fefefe"/></svg>
